!!!COM: Palestrina, Giovanni Perluigi da
!!!OPR: In illo tempore
!!!OTL: Gloria
**kern	**kern	**kern	**kern
*Ibass	*Itenor	*Icalto	*Icant
!Bassus	!Tenor	!Altus	!Cantus
*clefF4	*clefGv2	*clefG2	*clefG2
*k[]	*k[]	*k[]	*k[]
*A:aeo	*A:aeo	*A:aeo	*A:aeo
*M4/2	*M4/2	*M4/2	*M4/2
=1	=1	=1	=1
0r	0A	0r	0r
=2	=2	=2	=2
0r	1A	0r	0r
.	2G	.	.
.	2G	.	.
=3	=3	=3	=3
0r	1.c	0e	0r
.	4B	.	.
.	4A	.	.
=4	=4	=4	=4
0r	2G	1e	0r
.	2A	.	.
.	2B	2d	.
.	2B	2d	.
=5	=5	=5	=5
0r	4A	1.f	0a
.	4G	.	.
.	4F	.	.
.	4E	.	.
.	2D	.	.
.	4C	4e	.
.	8D	4d	.
.	8E	.	.
=6	=6	=6	=6
0r	1F	2c	1a
.	.	2d	.
.	1E	2e	2g
.	.	2e	2g
=7	=7	=7	=7
0r	2r	1A	1.cc
.	1A	.	.
.	.	1r	.
.	2G	.	4b
.	.	.	4a
=8	=8	=8	=8
0r	2c	1.e	2g
.	2A	.	2a
.	1G	.	2b
.	.	2d	2b
=9	=9	=9	=9
2r	1C	1g	1e
1E	.	.	.
.	1r	2e	2g
2D	.	[2f	2a
=10	=10	=10	=10
2G	1r	4f]	2b
.	.	4e	.
2E	.	1e	1cc
1F	2r	.	.
.	[2A	2d	4b
.	.	.	4a
=11	=11	=11	=11
1E	2A]	0e	2cc
.	2G	.	2.b
1r	2c	.	.
.	.	.	4a
.	2A	.	[2a
=12	=12	=12	=12
1r	1B	2r	2a]
.	.	2d	2g#
2r	2.A	2d	1a
2A	.	2c	.
.	4B	.	.
=13	=13	=13	=13
2A	2c	2f	1r
2G	2B	4e	.
.	.	4d	.
2.c	1A	2.e	2r
.	.	.	2a
4A	.	4f	.
=14	=14	=14	=14
1B	1r	1d	2a
.	.	.	2g
1A	2r	[1e	2.cc
.	2A	.	.
.	.	.	4a
=15	=15	=15	=15
0r	2A	1e]	1b
.	2G	.	.
.	2.c	2r	[1e
.	.	[2A	.
.	4A	.	.
=16	=16	=16	=16
1.E	1B	2A]	1e]
.	.	2G	.
.	1r	2c	1r
2D	.	4B	.
.	.	4A	.
=17	=17	=17	=17
2G	2r	2B	1r
2E	1e	2c	.
1F	.	1A	2r
.	2d	.	[2a
=18	=18	=18	=18
1E	2c	1e	2a]
.	2B	.	2g
1r	1A	2r	2cc
.	.	[2e	2a
=19	=19	=19	=19
0r	2.G	2e]	1b
.	.	2d	.
.	4F	.	.
.	1E	1g	2b
.	.	.	[2e
=20	=20	=20	=20
0r	1r	2e	2e]
.	.	2.f	2d
.	2r	.	2.g
.	.	4e	.
.	2G	[2e	.
.	.	.	8f
.	.	.	8e
=21	=21	=21	=21
1r	2A	2e]	2f
.	2B	2d	2f
2r	1c	[1e	2e
2E	.	.	[2g
=22	=22	=22	=22
2E	2B	2e]	2g]
2D	1d	2f	2a
2G	.	2d	2b
2E	4c	2e	[2cc
.	4B	.	.
=23	=23	=23	=23
1F	1A	2.c	4cc]
.	.	.	4b
.	.	.	1a
.	.	4d	.
2.E	1B	1e	.
.	.	.	2g#
4D	.	.	.
=24	=24	=24	=24
2C	1A	2e	0a
1D	.	1f	.
.	2r	.	.
4C	[2A	4e	.
4BB	.	4d	.
=25	=25	=25	=25
2AA	4A]	1e	2r
.	4A	.	.
2.E	2B	.	2.g
.	2.c	1r	.
4E	.	.	4g
2F	.	.	2a
.	4c	.	.
=26	=26	=26	=26
2.G	2B	0r	2.b
.	2.e	.	.
4G	.	.	4b
2E	.	.	2g
.	4d	.	.
[2A	4c	.	[2cc
.	4B	.	.
=27	=27	=27	=27
4A]	1c	2r	4cc]
4G	.	.	4b
4F	.	2.c	4a
4E	.	.	4g
1F	2.A	.	1a
.	.	4c	.
.	.	2d	.
.	4B	.	.
=28	=28	=28	=28
2C	1c	2.e	1g
2.c	.	.	.
.	.	4e	.
.	1r	2c	2.cc
4B	.	.	.
4A	.	[2f	.
4G	.	.	4b
=29	=29	=29	=29
4F	0r	4f]	4a
4G	.	4e	4g
2A	.	4e	2.cc
.	.	8d	.
.	.	8c	.
1G	.	1d	.
.	.	.	8b
.	.	.	8a
.	.	.	2b
=30	=30	=30	=30
1A	2r	2.c	1cc
.	1A	.	.
.	.	4d	.
2r	.	1e	2r
[2E	2B	.	[2g
=31	=31	=31	=31
2E]	1c	0r	2g]
2F	.	.	2a
2G	2B	.	2b
2E	[2e	.	2g
=32	=32	=32	=32
2.A	4e]	0r	2.cc
.	4e	.	.
.	2c	.	.
4A	.	.	4cc
2G	1d	.	2b
[2F	.	.	[2a
=33	=33	=33	=33
2F]	0c	1r	2a]
4E	.	.	4g
4D	.	.	4f
2.C	.	2r	2.e
.	.	[2c	.
8D	.	.	8f
8E	.	.	8g
=34	=34	=34	=34
1F	1r	4c]	1a
.	.	4c	.
.	.	2d	.
[1C	2r	1e	2.g
.	[2G	.	.
.	.	.	4f
=35	=35	=35	=35
1C]	4G]	1c	1e
.	4G	.	.
.	2A	.	.
1r	2B	2.g	2d
.	2G	.	[2g
.	.	4f	.
=36	=36	=36	=36
0r	1c	1e	4g]
.	.	.	4g
.	.	.	2a
.	2B	2d	2b
.	[2c	[2e	2g
=37	=37	=37	=37
0r	2c]	2e]	1cc
.	4B	4d	.
.	4A	4c	.
.	2G	2.d	2b
.	[2F	.	[2a
.	.	4c	.
=38	=38	=38	=38
1r	2F]	4A	2a]
.	.	4B	.
.	4E	2.c	4g
.	4D	.	4f
2r	1C	.	4e
.	.	4B	4f
[2C	.	4A	[2g
.	.	4G	.
=39	=39	=39	=39
2C]	1r	1A	2g]
2D	.	.	2f
1E	2r	1G	4g
.	.	.	4f
.	[2G	.	4e
.	.	.	4d
=40	=40	=40	=40
1C	2G]	0r	1e
.	2A	.	.
1G	2B	.	1d
.	2G	.	.
=41	=41	=41	=41
2F	2.c	0r	0r
2E	.	.	.
.	4c	.	.
2.D	2B	.	.
.	[2A	.	.
4C	.	.	.
=42	=42	=42	=42
1BB	4A]	1d	1r
.	8G#	.	.
.	8F#	.	.
.	2G#	.	.
1AA	1A	2c	2r
.	.	2A	2a
=43	=43	=43	=43
0r	1r	1c	2g
.	.	.	2e
.	2r	1B	1g
.	2d	.	.
=44	=44	=44	=44
1r	2c	1A	2.a
.	2A	.	.
.	.	.	8g
.	.	.	8f
1A	1c	1r	[1e
=45	=45	=45	=45
2G	1B	2r	1e]
2E	.	2e	.
[1G	2.B	2d	1r
.	.	[2B	.
.	4c	.	.
=46	=46	=46	=46
1G]	1d	4B]	1r
.	.	4c	.
.	.	4d	.
.	.	4B	.
2.A	1r	2.c	2r
.	.	.	2a
8G	.	4d	.
8F	.	.	.
=47	=47	=47	=47
1E	0r	4e	2g
.	.	4f	.
.	.	2.g	2.e
1C	.	.	.
.	.	4f	4f
.	.	[2e	4g
.	.	.	4e
=48	=48	=48	=48
1D	2r	2e]	2f
.	2d	2d	2f
1r	2c	4e	[1e
.	.	4d	.
.	[2A	4c	.
.	.	4B	.
=49	=49	=49	=49
1A	4A]	4c	1e_
.	4B	4B	.
.	4c	2A	.
.	4A	.	.
2G	1B	1E	1e_
[2E	.	.	.
=50	=50	=50	=50
4E]	1B	2r	1e]
4F	.	.	.
4G	.	2e	.
4E	.	.	.
2F	1A	2d	1a
2F	.	4c	.
.	.	4d	.
=51	=51	=51	=51
2.E	1B	4e	2g
.	.	4f	.
.	.	2.g	2.e
4D	.	.	.
1C	1r	.	.
.	.	4f	4f
.	.	[2e	4g
.	.	.	4e
=52	=52	=52	=52
1D	2r	2e]	1f
.	2d	2d	.
1AA	2c	[1e	2e
.	[2A	.	2c
=53	=53	=53	=53
1A	4A]	1e_	4c
.	4B	.	4d
.	4c	.	4e
.	4A	.	4f
2G	1B	1e_	4g
.	.	.	4a
[2E	.	.	4b
.	.	.	8a
.	.	.	8b
=54	=54	=54	=54
4E]	1G	1e]	2cc
4F	.	.	.
4G	.	.	2.b
4E	.	.	.
1F	1A	1r	.
.	.	.	4a
.	.	.	[2a
=55	=55	=55	=55
[0E	0B	2r	2a]
.	.	2.e	4g#
.	.	.	4f#
.	.	.	2g#
.	.	4e	.
.	.	2e	[2e
=56	=56	=56	=56
1E]	2r	2.g	4e]
.	.	.	4e
.	2.E	.	2e
.	.	4f	.
1r	.	1e	2.g
.	4E	.	.
.	2E	.	.
.	.	.	4a
=57	=57	=57	=57
0r	2G	2d	2b
.	2A	2.c	2.cc
.	2.c	.	.
.	.	4d	4b
.	.	4e	4g
.	8B	4f	4a
.	8A	.	.
=58	=58	=58	=58
0r	2G	2g	4b
.	.	.	4cc
.	2B-	2.f	1dd
.	1A	.	.
.	.	4e	.
.	.	2c	[2cc
=59	=59	=59	=59
1r	1G	1d	2cc]
.	.	.	2b
2r	1A	4c	2.cc
.	.	4d	.
[2AA	.	4e	.
.	.	4f	4b
=60	=60	=60	=60
4AA]	2r	2.e	1a
4AA	.	.	.
2AA	2.E	.	.
.	.	4d	.
2.C	.	1c	2e
.	4E	.	.
.	2E	.	[2e
4D	.	.	.
=61	=61	=61	=61
1E	2.G	1B	4e]
.	.	.	4e
.	.	.	2e
.	4A	.	.
2E	2B	1r	2g
4AA	[2c	.	2a
4BB	.	.	.
=62	=62	=62	=62
4C	4c]	0r	1e
4D	4B	.	.
4E	4G	.	.
4F	4A	.	.
2G	4B	.	1r
.	4c	.	.
[2F	[2d	.	.
=63	=63	=63	=63
4F]	4d]	0r	0r
4E	4c	.	.
2C	1c	.	.
1D	.	.	.
.	2B	.	.
=64	=64	=64	=64
2.C	0c	2r	1r
.	.	2.E	.
4BB	.	.	.
1AA	.	.	2r
.	.	4E	.
.	.	2E	[2e
=65	=65	=65	=65
1E	2r	2.G	4e]
.	.	.	4e
.	2.E	.	2e
.	.	4A	.
2r	.	2B	2.g
.	4E	.	.
[2E	2E	2c	.
.	.	.	4a
=66	=66	=66	=66
4E]	1G	2B	2b
4E	.	.	.
2C	.	2.e	2.cc
[1AA	2.A	.	.
.	.	4e	4b
.	.	2e	4a
.	4B	.	4g#
=67	=67	=67	=67
1AA]	1c	1e	1a
[1E	[1B	[1e	[1g#
=68	=68	=68	=68
1E]	1B]	1e]	1g#]
!! Qui tollis
*Ibass	*Itenor	*Icalto	*Icant
!Bassus	!Tenor	!Altus	!Cantus
*clefF4	*clefGv2	*clefG2	*clefG2
*k[]	*k[]	*k[]	*k[]
*A:aeo	*A:aeo	*A:aeo	*A:aeo
*M4/2	*M4/2	*M4/2	*M4/2
=69	=69	=69	=69
0r	1d	0r	0r
.	1d	.	.
=70	=70	=70	=70
1A	2c	1r	0r
.	2A	.	.
1A	2c	1e	.
.	2c	.	.
=71	=71	=71	=71
2G	0B	1e	0r
2E	.	.	.
2G	.	2d	.
2G	.	2B	.
=72	=72	=72	=72
0F	0A	2d	1a
.	.	2d	.
.	.	[1c	1a
=73	=73	=73	=73
0E	2r	2c]	2g
.	2G	4B	2e
.	.	4A	.
.	2.B	1G	2g
.	.	.	2g
.	4c	.	.
=74	=74	=74	=74
1D	1d	1A	0f
2.F	1A	2r	.
.	.	2A	.
4G	.	.	.
=75	=75	=75	=75
1A	2A	2.c	0e
.	1c	.	.
.	.	4d	.
2.E	.	2e	.
.	4B	[2g	.
4F	4A	.	.
=76	=76	=76	=76
1G	1B	2g]	1d
.	.	1d	.
1D	2A	.	2.f
.	2d	[2f	.
.	.	.	4g
=77	=77	=77	=77
2.F	2c	2f]	1a
.	2.A	4e	.
4G	.	4d	.
1A	.	1c	2e
.	4B	.	.
.	4c	.	2f
.	4A	.	.
=78	=78	=78	=78
0G	2B	2d	0g
.	1c	2e	.
.	.	1d	.
.	2B	.	.
=79	=79	=79	=79
2.C	2c	2r	[0g
.	2c	2e	.
4D	.	.	.
2E	1c	1e	.
2C	.	.	.
=80	=80	=80	=80
0G	2B	2d	1g]
.	2G	2B	.
.	2B	2d	1r
.	2B	2d	.
=81	=81	=81	=81
2r	4A	2c	2r
.	4B	.	.
2A	4c	4A	2cc
.	4d	4B	.
1A	2e	4c	1cc
.	.	4d	.
.	2c	4e	.
.	.	4f	.
=82	=82	=82	=82
2G	2d	4g	2b
.	.	4d	.
2E	2.e	2.g	2g
2G	.	.	2b
.	4d	4f	.
2G	2B	[2e	2b
=83	=83	=83	=83
1F	2c	2e]	1.a
.	2A	2d	.
1E	1B	1e	.
.	.	.	2g
=84	=84	=84	=84
1.C	2r	2r	2r
.	1c	1g	1e
2C	2c	2g	2e
=85	=85	=85	=85
[0C	1c	2g	[0e
.	.	1c	.
.	2r	.	.
.	[2G	2c	.
=86	=86	=86	=86
1C]	2G]	2c	1e]
.	2G	2c	.
1r	2G	2d	1r
.	2G	2e	.
=87	=87	=87	=87
0r	2A	1f	1r
.	2B	.	.
.	[1c	[1e	[1g
=88	=88	=88	=88
0r	2c]	2e]	2g]
.	4B	4d	2g
.	4A	4c	.
.	2B	2d	2g
.	[2c	[2e	2g
=89	=89	=89	=89
0r	2c]	4e]	2a
.	.	4f	.
.	2B	1g	2b
.	1A	.	2.cc
.	.	2f#	.
.	.	.	8b
.	.	.	8a
=90	=90	=90	=90
2r	2G	1g	4b
.	.	.	4a
1C	2.c	.	4g
.	.	.	4f
.	.	2r	4e
.	4d	.	4d
2C	[2e	[2g	4c
.	.	.	4d
=91	=91	=91	=91
2C	4e]	4g]	4e
.	4d	4f	4f
2C	4c	2e	4g
.	4B	.	4e
2D	2A	2d	2f
2E	2G	[2c	[2e
=92	=92	=92	=92
1F	1A	2c]	2e]
.	.	4B	2d
.	.	4A	.
1E	2G	2B	1e
.	2c	2e	.
=93	=93	=93	=93
0r	1c	1e	2r
.	.	.	2g
.	2B	[1d	1g
.	2G	.	.
=94	=94	=94	=94
0r	2.A	2d]	2f
.	.	2c	2e
.	4A	.	.
.	2D	[1f	[1a
.	4D	.	.
.	4E	.	.
=95	=95	=95	=95
1r	4F	2f]	2a]
.	4G	.	.
.	4A	2e	2a
.	4B	.	.
2r	2c	2.e	2.g
2E	2B	.	.
.	.	4d	4f
=96	=96	=96	=96
1E	1G	2c	4e
.	.	.	4f
.	.	2.B	4g
.	.	.	4e
2D	2r	.	2f
.	.	4A	.
2C	[2A	[2c	[2e
=97	=97	=97	=97
2.F	2A]	2c]	2e]
.	2A	4B	2d
4F	.	4A	.
1E	2B	1G	1e
.	2c	.	.
=98	=98	=98	=98
1D	1d	2A	1f
.	.	1A	.
2AA	2.c	.	2r
[2C	.	2G	[2e
.	8B	.	.
.	8A	.	.
=99	=99	=99	=99
2C]	1G	2c	2e]
2C	.	2c	2e
2D	1r	1B	2f#
2E	.	.	2g#
=100	=100	=100	=100
0F	2r	2A	0a
.	1A	1c	.
.	2A	2d	.
=101	=101	=101	=101
1E	2B	2e	2g
.	2c	2e	2g
1r	1d	1f	2b-
.	.	.	[2a
=102	=102	=102	=102
2r	2.c	1.e	4a]
.	.	.	4g
1C	.	.	1g
.	4B	.	.
.	1A	.	.
2D	.	4d	2f#
.	.	4c	.
=103	=103	=103	=103
2E	1G	2B	2g
2C	.	1c	2e
2.F	1r	.	2.a
.	.	2d	.
8E	.	.	8g
8D	.	.	8f
=104	=104	=104	=104
2C	2r	2e	1g
2E	2G	2c	.
1D	2A	[1f	1r
.	2B	.	.
=105	=105	=105	=105
0C	1c	2f]	2r
.	.	4e	1g
.	.	4d	.
.	2.c	2e	.
.	.	2c	2a
.	8B	.	.
.	8A	.	.
=106	=106	=106	=106
0r	2G	1d	2b
.	2B	.	2g
.	2A	1e	2cc
.	4G	.	4b
.	4F	.	4a
=107	=107	=107	=107
0r	1E	2r	2g
.	.	2c	2e
.	1F	2c	1a
.	.	2d	.
=108	=108	=108	=108
2r	2.c	2.e	1g
2C	.	.	.
.	4B	4d	.
2C	1A	2e	1r
2D	.	[2f	.
=109	=109	=109	=109
2.E	2r	4f]	1r
.	.	4e	.
.	2G	1e	.
8D	.	.	.
8E	.	.	.
2F	2A	.	2r
2G	2B	2d	[2g
=110	=110	=110	=110
1C	2.c	2.e	2g]
.	.	.	2a
.	8B	4f	.
.	8A	.	.
1r	2G	4g	2b
.	.	4f	.
.	[2A	4e	[2cc
.	.	4d	.
=111	=111	=111	=111
0r	4A]	2c	4cc]
.	4G	.	4b
.	2E	1e	2g
.	2F	.	2.a
.	2F	2d	.
.	.	.	4b
=112	=112	=112	=112
2r	1E	1e	2cc
2G	.	.	2b
1A	1r	2r	2.e
.	.	2c	.
.	.	.	4f
=113	=113	=113	=113
2B	0r	1d	1g
2G	.	.	.
2.c	.	[1e	2r
.	.	.	2g
4B	.	.	.
=114	=114	=114	=114
2A	1c	2e]	1a
2A	.	2f	.
1G	1d	2g	1b
.	.	2g	.
=115	=115	=115	=115
1r	2e	2.c	2g
.	2A	.	4cc
.	.	4d	4b
2r	2.c	[1e	4a
.	.	.	4g
[2C	.	.	[2g
.	4B	.	.
=116	=116	=116	=116
2C]	2A	2e]	2g]
2D	2A	4d	2f
.	.	4c	.
2E	2G	2B	2e
2C	2c	2e	2g
=117	=117	=117	=117
2F	2A	2c	2a
4E	2.c	2.e	4g
4D	.	.	4f
2C	.	.	4e
.	4B	4d	4f
2E	2G	4B	[2g
.	.	4c	.
=118	=118	=118	=118
1D	1A	1d	2g]
.	.	.	2f#
1G	1B	1d	1g
=119	=119	=119	=119
1r	1r	1r	1r
!! Cum Sancto Spiritu
*Ibass	*Itenor	*Icalto	*Icant
!Bassus	!Tenor	!Altus	!Cantus
*clefF4	*clefGv2	*clefG2	*clefG2
*k[]	*k[]	*k[]	*k[]
*A:aeo	*A:aeo	*A:aeo	*A:aeo
*M3/2	*M3/2	*M3/2	*M3/2
=120	=120	=120	=120
2G	2B	2d	2g
2G	2B	2d	2g
2E	2B	2e	2g
=121	=121	=121	=121
1D	1d	1f	1a
2G	2B	4e	2b
.	.	4d	.
=122	=122	=122	=122
4C	[1.G	4e	2cc
4D	.	4f	.
4E	.	2.g	4b
4F	.	.	4a
2G	.	.	2b
.	.	4f	.
=123	=123	=123	=123
2C	2G]	1e	2cc
1F	1A	.	1a
.	.	2d	.
!! coda
*Ibass	*Itenor	*Icalto	*Icant
!Bassus	!Tenor	!Altus	!Cantus
*clefF4	*clefGv2	*clefG2	*clefG2
*k[]	*k[]	*k[]	*k[]
*A:aeo	*A:aeo	*A:aeo	*A:aeo
*M4/2	*M4/2	*M4/2	*M4/2
=124	=124	=124	=124
0E	0B	2e	1g#
.	.	2e	.
.	.	2e	2r
.	.	2e	2b
=125	=125	=125	=125
0r	0r	2.g	2b
.	.	.	2b
.	.	8f	.
.	.	8e	.
.	.	2d	2.dd
.	.	[2f	.
.	.	.	8cc
.	.	.	8b
=126	=126	=126	=126
0r	2r	2f]	2a
.	2A	2e	2cc
.	2B	2d	2b
.	2c	2c	[2a
=127	=127	=127	=127
1r	1.d	1B	2a]
.	.	.	2g
2r	.	1A	2f
2A	4c	.	2e
.	4B	.	.
=128	=128	=128	=128
2A	2.c	2r	1e
2A	.	2e	.
.	4B	.	.
2.c	2A	2e	1r
.	2c	2e	.
8B	.	.	.
8A	.	.	.
=129	=129	=129	=129
2G	2B	2.g	1r
1c	1e	.	.
.	.	4f	.
.	.	2e	1g
2B	2d	2g	.
=130	=130	=130	=130
2A	2c	2f	2a
2G	2B	1e	2b
1F	2.A	.	2cc
.	.	2d	4b
.	4B	.	4a
=131	=131	=131	=131
2.E	4c	1e	2g
.	4B	.	.
.	2.e	.	2cc
4F	.	.	.
2G	.	1e	2b
.	4d	.	.
2A	2c	.	[2a
=132	=132	=132	=132
1E	1B	2r	2a]
.	.	2e	2g#
2r	1A	2e	1a
2AA	.	2e	.
=133	=133	=133	=133
2D	2r	2.f	1a
2D	2A	.	.
.	.	8e	.
.	.	8d	.
2.F	2A	2c	1r
.	2A	2f	.
8E	.	.	.
8D	.	.	.
=134	=134	=134	=134
2C	2c	2e	0r
1F	1A	2.d	.
.	.	4c	.
2E	2G	2c	.
=135	=135	=135	=135
2D	2F	2B	2r
2C	2E	1A	2a
1BB	1D	.	2b
.	.	2G#	2b
=136	=136	=136	=136
1AA	2E	1A	2.cc
.	2.c	.	.
.	.	.	8b
.	.	.	8a
2.C	.	[1e	2g
.	4B	.	.
.	[2A	.	[2cc
4D	.	.	.
=137	=137	=137	=137
2E	2A]	1e]	2cc]
2E	2G	.	2b
1F	1c	2A	1a
.	.	[2f	.
=138	=138	=138	=138
1C	1c	2f]	1g
.	.	2e	.
1D	1A	1d	1f
=139	=139	=139	=139
0AA	0A	0c#	0e
==	==	==	==
*-	*-	*-	*-
!!!CDT: 1525/^1526/-1594/2/2
!!!OCY: Italia
!!!AGN: Mass (Parody)
!!!AST: renaissance, vocal
!!!ASW: Motet 1518 (Moulu)
!!!PWK: Masses, Book 10
!!!RNB: Cadence finals: E,G,C
!!!YOR: Le Opere Complete, v. 27, p. 1
!!!YOO: Rome, Italy: Fratelli Scalera
!!!END: 1992//
!!!EED: John Miller
!!!YEC: Copyright 2000, John Miller
!!!YEN: United States of America
!!!YEM: Rights to all derivative electronic formats reserved.
!!!YEM: Refer to licensing agreement for further details.
!!!YEM: This file must be accompanied by the licensing agreement.
!!!YEM: A copy of the licensing agreement may be found at http://www.music-cog.ohio-state.edu/HumdrumDatabases/Palestrina/license.txt
!!!EMD: converted to Humdrum by Bret Aarden
